X:1
T:Title
%%score 1 2
L:1/8
Q:1/4=90
M:6/8
K:Db
V:1 treble nm="Choir Aahs, Soprano"
V:2 bass nm="Choir Aahs, Bass"
V:1
 D[DF][DA] [CE]2 D | [DF] [FA]2- [FA]3 | [DG][DF][CE] [DB]2 [CA] | [DF]6 | [DF][DA]F [CE]2 D | %5
w: 1.~They~ tried~ my~ Lord~ and~|Mas ter,~ *|With~ no~ one~ to~ de|fend;~|With in~ the~ halls~ of~|
 [DG] [DG]2- [DG]3 | [GB][FA][DF] [CG]2 [CE] | D6 | D[DF][DA] [Ec]2 [Ge] | [Fd] [DA]2- [DA]3 | %10
w: Pi late~ *|He~ stood~ with out~ a~|friend.~|||
 [DG][EF][EG] [GB]2 [FA] | [DF]6 | [Fd][Fd][Gd] [Ac]2 [Ae] | [Ad] [DA]2- [DA]3 | %14
w: ||||
 D[DE][DF] [DF]2 [CE] | D6 |] %16
w: ||
V:2
 [D,F,][D,F,][D,F,] [C,A,]2 [A,,F,] | [D,A,] [D,D]2- [D,D]3 | [E,G,][F,G,][G,A,] [G,B,]2 [A,C] | %3
 [D,D]6 | [D,A,][D,A,][=D,A,] [E,A,]2 [F,A,] | [G,B,] [G,B,]2- [G,B,]3 | %6
 [D,B,][D,A,][F,A,] [G,A,]2 [E,A,] | [D,A,]6 | [D,D][D,D][D,D] [A,,C]2 [A,,C] | %9
 [D,D] [D,D]2- [D,D]3 | [E,B,][E,C][E,D] [G,D]2 [A,D] | [D,A,]6 | [D,D][D,D][D,D] [E,C]2 [E,C] | %13
 [D,D] [D,D]2- [D,D]3 | [D,D][D,A,][D,F,] [A,,A,]2 [A,,G,] | [D,F,]6 |] %16

